X: 081
T: Duke of Perth's Reel
R: reel
B: Robert Bremner "A Collection of Scots Reels or Country Dances" p.8 #1
S: http://imslp.org/wiki/A_Collection_of_Scots_Reels_or_Country_Dances_(Bremner,_Robert)
Z: 2013 John Chambers <jc:trillian.mit.edu>
M: C|
L: 1/8
K: G
% - - - - - - - - - - - - - - - - - - - - - - - - -
V: 1
B |\
(G/A/B/c/ d)B gBdB | gBdB aAAB |\
(G/A/B/c/ d)B gBdB | cAdc BGG :|
|: f |\
gage abaf | gage beef |\
gage abaf | gddc BGG :|
% - - - - - - - - - - - - - - - - - - - - - - - - -
V: 2 clef=bass middle=d
z |\
g2g2 g2g2 | g2g2 a2a2 |\
g2g2 g2g2 | d2d2 G2g :|\
|: z |
g2g2 a2a2 | g2g2 e2e2 |\
g2g2 a2a2 | g2d2 G2G :|
% - - - - - - - - - - - - - - - - - - - - - - - - -

%%sep 1 1 500
%%sep 1 1 500
